packages/core/src/svgs/networks/mono/blast.svg

<svg width="24" height="24" viewBox="0 0 24 24" fill="none" xmlns="http://www.w3.org/2000/svg">
<path d="M17.7589 11.8815L20.9127 10.3099L22 6.97296L19.8256 5.39062H5.34769L2 7.87716H19.0182L18.1141 10.6759H11.2895L10.633 12.721H17.4575L15.5415 18.6091L18.7384 17.0268L19.8795 13.4961L17.7374 11.9245L17.7589 11.8815Z" fill="white"/>
<path d="M6.81186 16.0784L8.78171 9.94278L6.59658 8.30664L3.31348 18.608H15.5417L16.3597 16.0784H6.81186Z" fill="white"/>
</svg>

<svg xmlns="http://www.w3.org/2000/svg" width="24" height="24" fill="none" viewBox="0 0 24 24">
    <path fill="#fff" d="m17.759 11.882 3.154-1.572L22 6.973l-2.174-1.582H5.348L2 7.877h17.018l-.904 2.799H11.29l-.657 2.045h6.825l-1.916 5.888 3.196-1.582 1.142-3.53-2.143-1.572z"/>
    <path fill="#fff" d="m6.812 16.078 1.97-6.135-2.185-1.636-3.284 10.301h12.229l.818-2.53z"/>
</svg>
